resources/icons/20px/target.svg

<svg width="20" height="20" viewBox="0 0 20 20" fill="none" xmlns="http://www.w3.org/2000/svg">
<path d="M9 5C9 4.44769 9.44775 4 10 4C10.5522 4 11 4.44769 11 5V8C11 8.55231 10.5522 9 10 9C9.44775 9 9 8.55231 9 8V5Z" fill="black"/>
<path d="M12 9C11.4478 9 11 9.44769 11 10C11 10.5523 11.4478 11 12 11H15C15.5522 11 16 10.5523 16 10C16 9.44769 15.5522 9 15 9H12Z" fill="black"/>
<path d="M4 10C4 9.44769 4.44775 9 5 9H8C8.55225 9 9 9.44769 9 10C9 10.5523 8.55225 11 8 11H5C4.44775 11 4 10.5523 4 10Z" fill="black"/>
<path d="M10 11C9.44775 11 9 11.4477 9 12V15C9 15.5523 9.44775 16 10 16C10.5522 16 11 15.5523 11 15V12C11 11.4477 10.5522 11 10 11Z" fill="black"/>
<path fill-rule="evenodd" clip-rule="evenodd" d="M10 20C15.5228 20 20 15.5228 20 10C20 4.47717 15.5228 0 10 0C4.47717 0 0 4.47717 0 10C0 15.5228 4.47717 20 10 20ZM10 18C14.4183 18 18 14.4183 18 10C18 5.58173 14.4183 2 10 2C5.58167 2 2 5.58173 2 10C2 14.4183 5.58167 18 10 18Z" fill="black"/>
</svg>

<svg xmlns="http://www.w3.org/2000/svg" viewBox="0 0 20 20">
  <path d="M9 5a1 1 0 0 1 2 0v3a1 1 0 0 1-2 0zM12 9a1 1 0 0 0 0 2h3a1 1 0 0 0 0-2zM4 10a1 1 0 0 1 1-1h3a1 1 0 0 1 0 2H5a1 1 0 0 1-1-1M10 11a1 1 0 0 0-1 1v3a1 1 0 0 0 2 0v-3a1 1 0 0 0-1-1"/>
  <path d="M10 20c5.523 0 10-4.477 10-10S15.523 0 10 0 0 4.477 0 10s4.477 10 10 10m0-2a8 8 0 1 0 0-16 8 8 0 0 0 0 16"/>
</svg>
